_icons/SVG/648-meloetta-aria.svg

<svg xmlns="http://www.w3.org/2000/svg" viewBox="0 0 32 32"><title>648-meloetta-aria</title><path d="M11.64551,2.43426,9.92278,5.01776h1.72273L15.3077,9.7676V1.37752A7.233,7.233,0,0,0,11.64551,2.43426Z" style="fill:#c1fdbd"/><path d="M19.65233,21.74242A16.823,16.823,0,0,0,20.78369,32a5.14751,5.14751,0,0,1,2.82833-.41485c1.52045-.01163,2.55949-.54017,2.94152-1.77242-1.24081-.57441-1.99888-1.98583-2.14955-4.45-.38078-2.58583,3.06435-3.67714-2.30037-10.25757-.31555-2.50141,2.2299-9.70545-2.63985-12.67089A9.013,9.013,0,0,0,15.3077,1.37752V9.7676l2.48711,3.22573C15.2954,16.86,20.00036,21.065,19.65233,21.74242Z" style="fill:#a9faa2"/><path d="M10.616,5.75605V11.0783c.19215,2.06561,0,3.60934-1.16058,3.60934-1.30332,0-1.53242-.86693-1.56917-1.60057,0-1.2738,1.87051-.92181,1.36487.50194.55267.18915.95474-.03058.5809-2.35381-1.93873-.08443-3.11893-3.54228-.91012-5.062Q5.89854,4.088,6.1915,1.0358A6.17639,6.17639,0,0,1,9.6148,4.61355C9.27971,2.67359,9.618,1.03812,11.2756,0A6.86812,6.86812,0,0,1,10.616,5.75605Z" style="fill:#838c8a"/><path d="M11.25925,31.72011c1.02075-3.55548,2.0263-6.41057,2.99354-7.50055l-1.70395-1.98484A22.65488,22.65488,0,0,0,11.25925,31.72011Z" style="fill:#edeeee"/><path d="M18.44858,28.25571a11.106,11.106,0,0,1,.8,3.74429,8.40167,8.40167,0,0,0,.45208-3.25432Z" style="fill:#e3e5e5"/><path d="M14.791,12.8843l-.25953,1.80334L9.27466,18.5014c-2.81677.09175-4.28853,1.24455-3.69991,2.58983.94181,1.35092,2.78179.26759,4.04005-1.78273l3.898-3.06085-.40006,2.48445h.00008c0,.40089,1.10461.59767,2.19484.59236V12.95278Z" style="fill:#757f7e"/><path d="M17.418,18.7321l-.28924-2.4449a4.911,4.911,0,0,1-.0647-.98161l-1.00472-.618V13.05217l-.75166-.09939v6.37168C16.36967,19.31914,17.418,19.12235,17.418,18.7321Z" style="fill:#687271"/><path d="M12.66261,21.52835l-.11377.70637,1.70395,1.98484,1.05491,1.01485V22.01633C13.9852,22.01633,12.66261,21.85345,12.66261,21.52835Z" style="fill:#757f7e"/><path d="M19.70069,28.74568l3.26379-.99457L17.9527,21.52835c0,.3251-1.3225.488-2.645.488v3.21808l3.14088,3.0213Z" style="fill:#687271"/><path d="M13.11286,18.7321h-.00008l-.45017,2.79625c0,.3251,1.32259.488,2.64509.488V19.32446C14.21747,19.32977,13.11286,19.133,13.11286,18.7321Z" style="fill:#a9faa2"/><path d="M17.9527,21.52835,17.418,18.7321c0,.39025-1.04835.587-2.11032.59236v2.69187C16.6302,22.01633,17.9527,21.85345,17.9527,21.52835Z" style="fill:#8ff888"/><path d="M15.2954,6.32946A10.82105,10.82105,0,0,1,10.616,5.3997,5.20912,5.20912,0,0,0,9.6148,8.4313a5.56693,5.56693,0,0,0,5.6806,5.44558l.0123-.00133V6.3288Z" style="fill:#f7f7f7"/><path d="M20.976,8.4313a5.20974,5.20974,0,0,0-1.00114-3.0316,10.8101,10.8101,0,0,1-4.66715.9291v7.54675A5.5654,5.5654,0,0,0,20.976,8.4313Z" style="fill:#edeeee"/><path d="M15.2954,6.03893a11.0959,11.0959,0,0,1-4.53477-.85662c-.05368.06881-.09424.14626-.14468.21739a10.82105,10.82105,0,0,0,4.67945.92976l.0123-.00066V6.03827Z" style="fill:#909997"/><path d="M19.83017,5.18231a11.08725,11.08725,0,0,1-4.52247.856V6.3288a10.8101,10.8101,0,0,0,4.66715-.9291C19.92441,5.32857,19.88385,5.25112,19.83017,5.18231Z" style="fill:#838c8a"/><path d="M15.2954,2.98573a5.736,5.736,0,0,0-4.53477,2.19658,11.0959,11.0959,0,0,0,4.53477.85662l.0123-.00066V2.98639Z" style="fill:#f7f7f7"/><path d="M15.3077,2.98639V6.03827a11.08725,11.08725,0,0,0,4.52247-.856A5.73594,5.73594,0,0,0,15.3077,2.98639Z" style="fill:#edeeee"/><ellipse cx="12.54885" cy="8.66111" rx="1.11654" ry="1.48872" style="fill:#79c6c1"/><path d="M18.13212,7.17246c-.61671,0-1.11657.66649-1.11657,1.48854,0,.82239.49986,1.48888,1.11657,1.48888s1.11649-.66649,1.11649-1.48888C19.24861,7.839,18.74875,7.17246,18.13212,7.17246Z" style="fill:#67bfb5"/><path d="M15.2954,5.01776c-.42192,0-.764.51724-.764,1.1558,0,.63823.34205,1.15547.764,1.15547l.0123-.00366v-2.304Z" style="fill:#8fcec9"/><path d="M16.05936,6.17356c0-.63191-.33573-1.1415-.75166-1.15214v2.304C15.72363,7.31473,16.05936,6.80514,16.05936,6.17356Z" style="fill:#79c6c1"/><ellipse cx="12.26897" cy="8.22461" rx="0.34462" ry="0.4365" style="fill:#fff"/><ellipse cx="18.44858" cy="8.22454" rx="0.31646" ry="0.43646" style="fill:#fff"/><path d="M19.08746,13.3153c-.42842,0-.77567.463-.77567,1.03407,0,.5713.34725,1.03431.77567,1.03431s.77561-.463.77561-1.03431C19.86307,13.7783,19.51582,13.3153,19.08746,13.3153Z" style="fill:#8fcec9"/><path d="M21.44006,15.65432c-.42842,0-.77567.463-.77567,1.03407,0,.57131.34725,1.03431.77567,1.03431s.77561-.463.77561-1.03431C22.21567,16.11732,21.86842,15.65432,21.44006,15.65432Z" style="fill:#8fcec9"/><path d="M20.66442,19.32446c-.42842,0-.77567.463-.77567,1.03407,0,.5713.34725,1.0343.77567,1.0343s.77561-.463.77561-1.0343C21.44,19.78746,21.09278,19.32446,20.66442,19.32446Z" style="fill:#8fcec9"/><path d="M23.51726,20.49416c-.42842,0-.77567.463-.77567,1.03407,0,.57131.34725,1.03431.77567,1.03431s.77561-.463.77561-1.03431C24.29287,20.95716,23.94562,20.49416,23.51726,20.49416Z" style="fill:#8fcec9"/><path d="M22.2157,23.86445c-.42842,0-.77567.463-.77567,1.03407,0,.57131.34725,1.03431.77567,1.03431s.77561-.463.77561-1.03431C22.99131,24.32745,22.64406,23.86445,22.2157,23.86445Z" style="fill:#8fcec9"/></svg>

<svg xmlns="http://www.w3.org/2000/svg" viewBox="0 0 32 32"><path d="M11.646 2.434L9.923 5.018h1.723l3.662 4.75v-8.39a7.233 7.233 0 00-3.662 1.056z" fill="#c1fdbd"/><path d="M19.652 21.742A16.823 16.823 0 0020.784 32a5.148 5.148 0 012.828-.415c1.52-.011 2.56-.54 2.942-1.772-1.241-.575-2-1.986-2.15-4.45-.38-2.586 3.064-3.677-2.3-10.258-.316-2.501 2.23-9.705-2.64-12.67a9.013 9.013 0 00-4.156-1.057v8.39l2.487 3.225c-2.5 3.867 2.205 8.072 1.857 8.75z" fill="#a9faa2"/><path d="M10.616 5.756v5.322c.192 2.066 0 3.61-1.16 3.61-1.304 0-1.533-.867-1.57-1.6 0-1.275 1.87-.923 1.365.501.553.19.955-.03.581-2.354-1.939-.084-3.119-3.542-.91-5.062q-3.023-2.085-2.73-5.137a6.176 6.176 0 013.423 3.578c-.335-1.94.003-3.576 1.66-4.614a6.868 6.868 0 01-.659 5.756z" fill="#838c8a"/><path d="M11.26 31.72c1.02-3.555 2.026-6.41 2.993-7.5l-1.704-1.985a22.655 22.655 0 00-1.29 9.485z" fill="#edeeee"/><path d="M18.449 28.256a11.106 11.106 0 01.8 3.744 8.402 8.402 0 00.452-3.254z" fill="#e3e5e5"/><path d="M14.791 12.884l-.26 1.804L9.275 18.5c-2.817.092-4.289 1.245-3.7 2.59.942 1.351 2.782.268 4.04-1.783l3.898-3.06-.4 2.484c0 .401 1.104.598 2.195.592v-6.371z" fill="#757f7e"/><path d="M17.418 18.732l-.29-2.445a4.911 4.911 0 01-.064-.981l-1.005-.618v-1.636l-.751-.1v6.372c1.062-.005 2.11-.202 2.11-.592z" fill="#687271"/><path d="M12.663 21.528l-.114.707 1.704 1.985 1.055 1.014v-3.218c-1.323 0-2.645-.163-2.645-.488z" fill="#757f7e"/><path d="M19.7 28.746l3.264-.995-5.011-6.223c0 .325-1.323.488-2.645.488v3.218l3.14 3.022z" fill="#687271"/><path d="M13.113 18.732l-.45 2.796c0 .325 1.322.488 2.645.488v-2.692c-1.09.006-2.195-.191-2.195-.592z" fill="#a9faa2"/><path d="M17.953 21.528l-.535-2.796c0 .39-1.048.587-2.11.592v2.692c1.322 0 2.645-.163 2.645-.488z" fill="#8ff888"/><path d="M15.295 6.33a10.821 10.821 0 01-4.679-.93 5.21 5.21 0 00-1.001 3.03 5.567 5.567 0 005.68 5.446l.013-.001V6.329z" fill="#f7f7f7"/><path d="M20.976 8.431A5.21 5.21 0 0019.975 5.4a10.81 10.81 0 01-4.667.929v7.547a5.565 5.565 0 005.668-5.445z" fill="#edeeee"/><path d="M15.295 6.039a11.096 11.096 0 01-4.534-.857c-.054.07-.095.147-.145.218a10.821 10.821 0 004.68.93l.012-.001v-.29z" fill="#909997"/><path d="M19.83 5.182a11.087 11.087 0 01-4.522.856v.29a10.81 10.81 0 004.667-.928c-.05-.071-.091-.149-.145-.218z" fill="#838c8a"/><path d="M15.295 2.986a5.736 5.736 0 00-4.534 2.196 11.096 11.096 0 004.534.857h.013V2.985z" fill="#f7f7f7"/><path d="M15.308 2.986v3.052a11.087 11.087 0 004.522-.856 5.736 5.736 0 00-4.522-2.196z" fill="#edeeee"/><ellipse cx="12.549" cy="8.661" rx="1.117" ry="1.489" fill="#79c6c1"/><path d="M18.132 7.172c-.617 0-1.116.667-1.116 1.489 0 .822.5 1.489 1.116 1.489s1.117-.667 1.117-1.489c0-.822-.5-1.489-1.117-1.489z" fill="#67bfb5"/><path d="M15.295 5.018c-.422 0-.764.517-.764 1.156 0 .638.342 1.155.764 1.155l.013-.004V5.021z" fill="#8fcec9"/><path d="M16.06 6.174c0-.632-.336-1.142-.752-1.153v2.304c.416-.01.751-.52.751-1.151z" fill="#79c6c1"/><ellipse cx="12.269" cy="8.225" rx=".345" ry=".436" fill="#fff"/><ellipse cx="18.449" cy="8.225" rx=".316" ry=".436" fill="#fff"/><path d="M19.087 13.315c-.428 0-.775.463-.775 1.034 0 .572.347 1.035.775 1.035s.776-.463.776-1.035c0-.57-.347-1.034-.776-1.034zm2.353 2.339c-.428 0-.776.463-.776 1.034 0 .572.348 1.035.776 1.035s.776-.463.776-1.035c0-.57-.348-1.034-.776-1.034zm-.776 3.67c-.428 0-.775.463-.775 1.035 0 .57.347 1.034.775 1.034s.776-.463.776-1.034c0-.572-.347-1.035-.776-1.035zm2.853 1.17c-.428 0-.775.463-.775 1.034 0 .572.347 1.035.775 1.035s.776-.463.776-1.035c0-.57-.347-1.034-.776-1.034zm-1.301 3.37c-.429 0-.776.463-.776 1.035 0 .57.347 1.034.776 1.034s.775-.463.775-1.034c0-.572-.347-1.035-.775-1.035z" fill="#8fcec9"/></svg>
